src/icon/file/format-jpg/icon_format-jpg_s_white.svg

<svg xmlns="http://www.w3.org/2000/svg" width="18" height="18" viewBox="0 0 18 18" fill="none"><rect width="18" height="18" fill="none"/><path fill-rule="evenodd" clip-rule="evenodd" d="M14 5.706H13V2.467C13 2.177 12.749 1.941 12.441 1.941H5.707L2 5.431V5.706H1V5.04L5.293 1H12.441C13.301 1 14 1.658 14 2.467V5.706V5.706ZM12.5 17H2.5C1.673 17 1 16.367 1 15.588H2C2 15.848 2.224 16.058 2.5 16.058H12.5C12.775 16.058 13 15.848 13 15.588H14C14 16.367 13.327 17 12.5 17Z" fill="white"/><path d="M3.638 7.72202H4.588V11.38C4.588 11.879 4.424 12.275 4.095 12.57C3.767 12.863 3.335 13.01 2.796 13.01C2.223 13.01 1.78 12.873 1.468 12.598C1.156 12.323 1 11.94 1 11.45H1.951C1.951 11.727 2.023 11.936 2.166 12.077C2.312 12.216 2.522 12.285 2.796 12.285C3.053 12.285 3.256 12.205 3.408 12.045C3.561 11.883 3.638 11.659 3.638 11.375V7.72202ZM7.759 11V12.938H6.804V7.72202H8.906C9.52 7.72202 10.006 7.87302 10.366 8.17702C10.729 8.48002 10.91 8.88102 10.91 9.38002C10.91 9.89202 10.733 10.29 10.378 10.573C10.026 10.858 9.531 11 8.895 11H7.759V11ZM7.759 10.273H8.906C9.246 10.273 9.505 10.197 9.683 10.047C9.863 9.89402 9.951 9.67402 9.951 9.38702C9.951 9.10602 9.861 8.88102 9.68 8.71402C9.499 8.54402 9.25 8.45702 8.932 8.45202H7.76V10.272L7.759 10.273ZM16.5 12.261C16.301 12.507 16.026 12.693 15.674 12.82C15.288 12.9522 14.882 13.0165 14.474 13.01C14.013 13.01 13.605 12.91 13.251 12.713C12.8987 12.5173 12.6123 12.2215 12.428 11.863C12.237 11.493 12.138 11.062 12.13 10.57V10.161C12.13 9.37302 12.329 8.75802 12.726 8.31602C13.124 7.87202 13.678 7.65002 14.39 7.65002C15.002 7.65002 15.487 7.79302 15.847 8.08002C16.207 8.36602 16.423 8.78002 16.497 9.32002H15.56C15.455 8.69102 15.071 8.37702 14.41 8.37702C13.982 8.37702 13.656 8.52402 13.432 8.81702C13.21 9.10902 13.096 9.53802 13.088 10.104V10.506C13.088 11.069 13.213 11.508 13.462 11.82C13.714 12.13 14.062 12.286 14.507 12.286C14.996 12.286 15.343 12.181 15.549 11.971V10.95H14.417V10.262H16.5V12.262V12.261Z" fill="white" fill-opacity="0.9"/></svg>

<svg width="18" height="18" viewBox="0 0 18 18" fill="none" xmlns="http://www.w3.org/2000/svg"><path d="M0 0h18v18H0z"/><path fill-rule="evenodd" clip-rule="evenodd" d="M14 5.706h-1V2.467c0-.29-.251-.526-.559-.526H5.707L2 5.431v.275H1V5.04L5.293 1h7.148C13.301 1 14 1.658 14 2.467v3.239zM12.5 17h-10c-.827 0-1.5-.633-1.5-1.412h1c0 .26.224.47.5.47h10c.275 0 .5-.21.5-.47h1c0 .779-.673 1.412-1.5 1.412z" fill="#fff"/><path d="M3.638 7.722h.95v3.658c0 .499-.164.895-.493 1.19-.328.293-.76.44-1.299.44-.573 0-1.016-.137-1.328-.412C1.156 12.323 1 11.94 1 11.45h.951c0 .277.072.486.215.627.146.139.356.208.63.208.257 0 .46-.08.612-.24.153-.162.23-.386.23-.67V7.722zM7.759 11v1.938h-.955V7.722h2.102c.614 0 1.1.151 1.46.455.363.303.544.704.544 1.203 0 .512-.177.91-.532 1.193-.352.285-.847.427-1.483.427H7.759zm0-.727h1.147c.34 0 .599-.076.777-.226.18-.153.268-.373.268-.66 0-.281-.09-.506-.271-.673-.181-.17-.43-.257-.748-.262H7.76v1.82zm8.741 1.988c-.199.246-.474.432-.826.559a3.53 3.53 0 01-1.2.19c-.461 0-.869-.1-1.223-.297a2.039 2.039 0 01-.823-.85c-.191-.37-.29-.801-.298-1.293v-.409c0-.788.199-1.403.596-1.845.398-.444.952-.666 1.664-.666.612 0 1.097.143 1.457.43.36.286.576.7.65 1.24h-.937c-.105-.629-.489-.943-1.15-.943-.428 0-.754.147-.978.44-.222.292-.336.721-.344 1.287v.402c0 .563.125 1.002.374 1.314.252.31.6.466 1.045.466.489 0 .836-.105 1.042-.315V10.95h-1.132v-.688H16.5v2z" fill="#fff" fill-opacity=".9"/></svg>
